svg/development/hotkey_line.svg

<?xml version="1.0" encoding="UTF-8"?>
<svg width="24px" height="24px" viewBox="0 0 24 24" version="1.1" xmlns="http://www.w3.org/2000/svg" xmlns:xlink="http://www.w3.org/1999/xlink">
    <title>hotkey_line</title>
    <g id="页面-1" stroke="none" stroke-width="1" fill="none" fill-rule="evenodd">
        <g id="Development" transform="translate(-816.000000, 0.000000)" fill-rule="nonzero">
            <g id="hotkey_line" transform="translate(816.000000, 0.000000)">
                 <path d="M24,0 L24,24 L0,24 L0,0 L24,0 Z M12.5934901,23.257841 L12.5819402,23.2595131 L12.5108777,23.2950439 L12.4918791,23.2987469 L12.4918791,23.2987469 L12.4767152,23.2950439 L12.4056548,23.2595131 C12.3958229,23.2563662 12.3870493,23.2590235 12.3821421,23.2649074 L12.3780323,23.275831 L12.360941,23.7031097 L12.3658947,23.7234994 L12.3769048,23.7357139 L12.4804777,23.8096931 L12.4953491,23.8136134 L12.4953491,23.8136134 L12.5071152,23.8096931 L12.6106902,23.7357139 L12.6232938,23.7196733 L12.6232938,23.7196733 L12.6266527,23.7031097 L12.609561,23.275831 C12.6075724,23.2657013 12.6010112,23.2592993 12.5934901,23.257841 L12.5934901,23.257841 Z M12.8583906,23.1452862 L12.8445485,23.1473072 L12.6598443,23.2396597 L12.6498822,23.2499052 L12.6498822,23.2499052 L12.6471943,23.2611114 L12.6650943,23.6906389 L12.6699349,23.7034178 L12.6699349,23.7034178 L12.678386,23.7104931 L12.8793402,23.8032389 C12.8914285,23.8068999 12.9022333,23.8029875 12.9078286,23.7952264 L12.9118235,23.7811639 L12.8776777,23.1665331 C12.8752882,23.1545897 12.8674102,23.1470016 12.8583906,23.1452862 L12.8583906,23.1452862 Z M12.1430473,23.1473072 C12.1332178,23.1423925 12.1221763,23.1452606 12.1156365,23.1525954 L12.1099173,23.1665331 L12.0757714,23.7811639 C12.0751323,23.7926639 12.0828099,23.8018602 12.0926481,23.8045676 L12.108256,23.8032389 L12.3092106,23.7104931 L12.3186497,23.7024347 L12.3186497,23.7024347 L12.3225043,23.6906389 L12.340401,23.2611114 L12.337245,23.2485176 L12.337245,23.2485176 L12.3277531,23.2396597 L12.1430473,23.1473072 Z" id="MingCute" fill-rule="nonzero"></path>
                <path d="M18,3 C19.597725,3 20.903664,4.24892392 20.9949075,5.82372764 L21,6 L21,18 C21,19.597725 19.7511226,20.903664 18.1762773,20.9949075 L18,21 L6,21 C4.40232321,21 3.09633941,19.7511226 3.00509271,18.1762773 L3,18 L3,6 C3,4.40232321 4.24892392,3.09633941 5.82372764,3.00509271 L6,3 L18,3 Z M15.2934,16.7076 C14.9018,16.895 14.4631,17 14,17 L5,17 L5,18 C5,18.5523 5.44772,19 6,19 L17.5858,19 L15.2934,16.7076 Z M18,5 L17,5 L17,14 C17,14.3859167 16.9270833,14.7548889 16.7943287,15.0937801 L16.7076,15.2934 L19,17.5858 L19,6 C19,5.48716857 18.613973,5.06449347 18.1166239,5.0067278 L18,5 Z M15,5 L6,5 C5.48716857,5 5.06449347,5.38604429 5.0067278,5.88337975 L5,6 L5,15 L14,15 C14.51285,15 14.9355092,14.613973 14.9932725,14.1166239 L15,14 L15,5 Z M9,7 C9.51283143,7 9.93550653,7.38604429 9.9932722,7.88337975 L10,8 L10,8.63148 L11.4453,7.66795 C11.9048,7.3616 12.5257,7.48577 12.8321,7.9453 C13.1165214,8.37200643 13.0297464,8.93782745 12.6479974,9.26176291 L12.5547,9.33205 L11.1778,10.25 L12.5547,11.1679 C13.0142,11.4743 13.1384,12.0952 12.8321,12.5547 C12.5475857,12.9813786 11.9918954,13.1189464 11.5460613,12.8911811 L11.4453,12.8321 L10,11.8685 L10,12 C10,12.5523 9.55228,13 9,13 C8.48716857,13 8.06449347,12.613973 8.0067278,12.1166239 L8,12 L8,8 C8,7.44772 8.44772,7 9,7 Z" id="形状" fill="#09244B"></path>
            </g>
        </g>
    </g>
</svg>

<svg xmlns="http://www.w3.org/2000/svg" width="24" height="24"><g fill="none" fill-rule="nonzero"><path d="M24 0v24H0V0h24ZM12.593 23.258l-.011.002-.071.035-.02.004-.014-.004-.071-.035c-.01-.004-.019-.001-.024.005l-.004.01-.017.428.005.02.01.013.104.074.015.004.012-.004.104-.074.012-.016.004-.017-.017-.427c-.002-.01-.009-.017-.017-.018Zm.265-.113-.013.002-.185.093-.01.01-.003.011.018.43.005.012.008.007.201.093c.012.004.023 0 .029-.008l.004-.014-.034-.614c-.003-.012-.01-.02-.02-.022Zm-.715.002a.023.023 0 0 0-.027.006l-.006.014-.034.614c0 .012.007.02.017.024l.015-.002.201-.093.01-.008.004-.011.017-.43-.003-.012-.01-.01-.184-.092Z"/><path fill="#09244B" d="M18 3a3 3 0 0 1 2.995 2.824L21 6v12a3 3 0 0 1-2.824 2.995L18 21H6a3 3 0 0 1-2.995-2.824L3 18V6a3 3 0 0 1 2.824-2.995L6 3h12Zm-2.707 13.708c-.391.187-.83.292-1.293.292H5v1a1 1 0 0 0 1 1h11.586l-2.293-2.292ZM18 5h-1v9c0 .386-.073.755-.206 1.094l-.086.2L19 17.585V6a1 1 0 0 0-.883-.993L18 5Zm-3 0H6a1 1 0 0 0-.993.883L5 6v9h9a1 1 0 0 0 .993-.883L15 14V5ZM9 7a1 1 0 0 1 .993.883L10 8v.631l1.445-.963a1 1 0 0 1 1.203 1.594l-.093.07-1.377.918 1.377.918a1 1 0 0 1-1.009 1.723l-.1-.059L10 11.868V12a1 1 0 0 1-1.993.117L8 12V8a1 1 0 0 1 1-1Z"/></g></svg>
